X:88
T: Der schwatzhafte Junggeselle
N: Q0139C
O: Mitteleuropa, Deutschland / Frankreich, Lothringen, Kr. Forbach,
N: Taktwechsel entsprechend der Takteinteilung festgelegt.
R: Ballade, Indiskretion, verweigerter Beischlaf
M: 3/4
L: 1/8
K: Bb
F2 | B2A2G2 | c2d2c2 | B2F2z2 | z4
F2 | B4G2 | c4d2 | B2F2z2 | z4
F2 | d2d2d2e2 | d4z2B2 | c2d2e2d2 | c4z2 |
B2 | A2c2c2dd | c4B2c2 | d2e2d2c2 | B4z2

@@@ Tune index: 1586
